X:1
T: Blithe and Cheerie
C:
R:Jig
Q:180
K:A
M:6/8
L:1/16
|:c2|e4c2 A2c2e2|f4a2 d4f2|e4a2 c4e2|d4f2 G6|
A4B2 c2B2A2|d4f2 b4a2|g4e2 e2d2B2|A6 a4a2|
b4a2 g2f2g2|a6 e4c2|d4e2 f2e2d2|c4d2 e6|
d2c2B2 B2c2d2|c4e2 b4a2|g4e2 e2d2B2|A6 a4:|
